!!!!SEGMENT: pl-wnifc--2374-n--003_mikuli-karol--sieben-lieder-op-27-das-veilchen.krn
!!!cenid: 18xx:3892
!!!COM: Mikuli, Karol
!!!COM-rismID: pe106110
!!!CDT: 1819-1897
!!!CNT:
!!!GTL: Sieben lieder op. 27
!!!OTL: Das Veilchen
!!!OMV: 003
!!!PDT: 1880
!!!AGN:
!!!SMS-siglum: PL-Wnifc
!!!SMS-shelfmark: 2374/n
!!!SMS-shelfwork: 001-003 G
!!!SMS-variant:
!!!SMS-altvar:
!!!NIFC-rismSourceID: 1001155254
!!!NIFC-rismChildID: 1001155260
!!!NIFC-islandoraID: nifc:211968
!!!URL-pdf-islandora: https://repozytorium.nifc.pl/islandora/object/nifc%3A211968/datastream/PDF/view
!!!URL-scan: https://polish.musicsources.pl/pl/lokalizacje/galeria/druki-muzyczne/16819 @EN{Scan on Polish Music Sources Website} @PL{Skany w portalu Dziedzictwo Muzyki Polskiej w otwartym dostępie}
!!!ONB-nifc:
!!!AIN: 1 piano 1 tenor
!!!key: B-
**kern	**kern	**dynam	**kern	**text	**dynam
*part2	*part2	*part2	*part1	*part1	*part1
*staff3	*staff2	*	*staff1	*staff1	*
*I"Pianoforte.	*I"Pianoforte.	*	*I"Singstimme.	*	*
*I'pf	*I'pf	*	*I'V	*	*
*ICklav	*ICklav	*	*ICvox	*	*
*Ipiano	*Ipiano	*	*Itenor	*	*
*IGacmp	*IGacmp	*	*IGsolo	*	*
*mI"Pianoforte	*mI"Pianoforte	*	*mI"Voce	*	*
*clefF4	*clefG2	*	*clefG2	*	*
*k[b-e-]	*k[b-e-]	*	*k[b-e-]	*	*
*B-:	*B-:	*	*B-:	*	*
*M2/4	*M2/4	*	*M2/4	*	*
=1	=1	=1	=1	=1	=1
!!!OMD:
!!!OMD-mod: Mässig und zart [eighth] = 96
*^	*^	*	*	*	*
!	!	!LO:TX:b:i:t=sehr gebunden	!	!	!LO:TX:a:i:t=Mässig und zart.:mod=	!	!
(8.F/L	4BB-\	(16ddd/LL	4.ee-\	p	2r	.	.
.	.	16ccc/	.	.	.	.	.
.	.	16bb-/	.	.	.	.	.
16F#X/Jk	.	16aa/JJ	.	.	.	.	.
8G/L	4ryy	16ccc/LL	.	.	.	.	.
.	.	16bb-/	.	.	.	.	.
8e-/J	.	16gg/	[8b-\	.	.	.	.
.	.	16cc/JJ)	.	.	.	.	.
*v	*v	*	*	*	*	*	*
=2	=2	=2	=2	=2	=2	=2
8d\L	8ff/L	16b-\LL]	.	2r	.	.
.	.	16f\	.	.	.	.
8c\	(16ff/L	16g\	.	.	.	.
.	16ee-/JJ	16a\JJ	.	.	.	.
8B-\J)	16ddLL 16b-/)	16ryy	.	.	.	.
.	16d/	[8.d\	.	.	.	.
(16B-\LL	(16dd/	.	.	.	.	.
16A\JJ	16cc/JJ	.	.	.	.	.
=3	=3	=3	=3	=3	=3	=3
*	*	*^	*	*	*	*
8G\L	16b-/LL	2d\]	8b-\	.	2r	.	.
.	16dd/	.	.	.	.	.	.
8B-\	16cc/	.	8cc\	.	.	.	.
.	16dd/JJ	.	.	.	.	.	.
8F\	16a/LL	.	8a\	.	.	.	.
.	16dd/	.	.	.	.	.	.
8G\J	16b-/	.	8b-\	.	.	.	.
.	16dd/JJ	.	.	.	.	.	.
*	*	*v	*v	*	*	*	*
!!LO:LB:g=original
=4	=4	=4	=4	=4	=4	=4
8E-\L	16g/LL	4g\	.	2r	.	.
.	16dd/	.	.	.	.	.
8En\J	16cc/	.	.	.	.	.
.	16b-/JJ	.	.	.	.	.
4F\)	16b-/LL	4e-X\	.	.	.	.
.	16a/	.	.	.	.	.
.	16g/	.	.	.	.	.
.	16f/JJ)	.	.	.	.	.
*	*v	*v	*	*	*	*
=5	=5	=5	=5	=5	=5
!	!	!	!	!	!LO:DY:a
(8BB-\L	(16fLL 16d/	pp	8.f/	Veil-	p
.	16b-/	.	.	.	.
8D\	16a/	.	.	.	.
.	16a-X/JJ	.	16f#X/	-chen	.
8E-\	16g/LL	.	8g/	sah	.
.	16cc/	.	.	.	.
[8F\J	16an/	.	8ee-\	ich	.
.	16cc/JJ)	.	.	.	.
=6	=6	=6	=6	=6	=6
*	*^	*	*	*	*
8F\L]	(16b-/LL	4ryy	.	8dd\	halb	.
.	16f/	.	.	.	.	.
8F#X\	16cc 16a/	.	.	8cc\	ver-	.
.	16e-/JJ	.	.	.	.	.
8G\)	16b-/LL	[4b-\	.	8b-\	-schneit	.
.	16d/	.	.	.	.	.
(16Fn\L	16a/	.	.	16a/	zwi-	.
16E-\JJ	16g/JJ)	.	.	16g/	-schen	.
=7	=7	=7	=7	=7	=7	=7
8D\L	2b-/_	16f\LL	.	8f/	Gras	.
.	.	16b-\	.	.	.	.
8E-\	.	16g\	.	8g/	und	.
.	.	16b-\JJ	.	.	.	.
8C\	.	16e-\LL	.	(8e-/	Moo-	.
.	.	16b-\	.	.	.	.
8E-\J)	.	16g [[16B-\	.	8b-/)	.	.
.	.	16b-\JJ	.	.	.	.
!!LO:LB:g=original
=8	=8	=8	=8	=8	=8	=8
(16D\LL	4b-] 4B-/]]	(16f\LL	.	4f/	-se,	.
16F\	.	16d\	.	.	.	.
16G\	.	16e-\	.	.	.	.
16F\JJ)	.	16d\JJ)	.	.	.	.
(16F\LL	8.b-/L	(16d\LL	.	4r	.	.
16E-\	.	16g\	.	.	.	.
16D\	.	16f\	.	.	.	.
16C\JJ)	16cc/Jk	16a\JJ)	.	.	.	.
*	*v	*v	*	*	*	*
=9	=9	=9	=9	=9	=9
(8.BB-\L	(>16ddLL 16b-\	.	8.f/	Veil-	.
.	16ee-\	.	.	.	.
.	16dd\	.	.	.	.
16D\K	16cc\JJ	.	16f#X/	-chen,	<
8E-\	16b-/LL	.	8g/	thust	.
.	16cc/	.	.	.	.
8C\J)	16b-/	.	8ee-\	mir	[[
.	16g/JJ	.	.	.	.
=10	=10	=10	=10	=10	=10
*	*^	*	*	*	*
(4D\	16f#X/LL	4ryy	.	16dd\LL	wahr-	>
.	16a/	.	.	16cc\	.	.
.	16dd/	.	.	16b-\JJ	.	.
.	16cc/JJ)	.	.	16a/	-lich	.
8G\)	(16bb-/LL	8b-\	.	8g/	leid,	]
.	16gg/	.	.	.	.	.
8r	16ee-/	8ryy	.	8r	.	.
.	16dd/JJ)	.	.	.	.	.
*	*v	*v	*	*	*	*
=11	=11	=11	=11	=11	=11
!	!	!	!	!	!LO:DY:a
(4G\	(16cc#X\LL	.	8.b-\	denk'	<
.	16gg\	.	.	.	.
.	16een\	.	.	.	.
.	16cc#\JJ)	.	16a/	ich	.
4Fn\	(16dd\LL	.	8a/	an	.
.	16a\	.	.	.	.
.	16aa\	.	8dd\	die	[[
.	16a\JJ)	.	.	.	.
!!LO:PB:g=original
=12	=12	=12	=12	=12	=12
*	*^	*	*	*	*
!	!	!	!	!	!	!LO:DY:a
4A\	(16f/LL	8f\L	.	8.ff\	Früh-	>
.	16dd/	.	.	.	.	.
.	16bn/	16g\L	.	.	.	.
.	16cc#X/JJ	16en\JJ	.	16een\	-ling-	.
8D\L	16ddLL 16f/	4ryy	.	8dd\	-szeit	.
.	16a/	.	.	.	.	.
8E-\J)	16ccn 16e-X/	.	.	16cc\	und	]
.	16g/JJ)	.	.	16g/	an	.
*	*v	*v	*	*	*	*
=13	=13	=13	=13	=13	=13
!	!LO:TX:a:i:t=der Stimme folgend.	!	!LO:TX:a:i:t=etwas zurückhaltend.	!	!LO:DY:a
8F\L	(16d/LL	pp	8b-\	man-	p
.	16b-/)	.	.	.	.
8G\J	(16b-/	.	8g/	-che	.
.	16d/JJ)	.	.	.	.
8D\L	(16f/LL	.	8a/	Ro-	.
.	16a/)	.	.	.	.
8F\J	(16a/	.	8dd\	.	.
.	16e-/JJ)	.	.	.	.
=14	=14	=14	=14	=14	=14
!	!LO:TX:a:i:t=a tempo	!	!LO:TX:a:i:t=a tempo	!	!
*ped	*	*	*	*	*
N(16BB-\LL	8b- 8d/	.	4b-\	-se.	.
16F\	.	.	.	.	.
16B-\	8r	.	.	.	.
16d\JJ	.	.	.	.	.
4r	16f\LL	.	4r	.	.
.	16b-\	.	.	.	.
.	16dd\	.	.	.	.
.	16ff\JJN)	.	.	.	.
*Xped	*	*	*	*	*
=15	=15	=15	=15	=15	=15
*	*^	*	*	*	*
!	!LO:TX:a:i:t=mit Ausdruck.	!	!	!	!	!
16g>LL 16c> 16B-\	(>>16ff/LL	4ryy	.	2r	.	.
16g> 16c> 16B-\	16een/	.	.	.	.	.
16g> 16c> 16B-\	16dd/	.	.	.	.	.
16g>JJ 16c> 16B-\	16cc/JJ)	.	.	.	.	.
16cLL 16B-\	8cc/L	16a\LL	.	.	.	.
16c 16B-\	.	16g\	.	.	.	.
16c 16B-\	8cc/J	16f\	.	.	.	.
16cJJ 16B-\	.	16en\JJ	.	.	.	.
!!LO:LB:g=original
=16	=16	=16	=16	=16	=16	=16
16cLL 16A\	(16cc/LL	4f\	.	2r	.	.
16c 16A\	16dd/	.	.	.	.	.
16c 16A\	16een/	.	.	.	.	.
16cJJ 16A\	16ff/JJ	.	.	.	.	.
16cLL 16A\	4cc/)	(16en\LL	.	.	.	.
16c 16A\	.	16f\	.	.	.	.
16c 16A\	.	16g\	.	.	.	.
16cJJ 16A\	.	16a\JJ)	.	.	.	.
*	*v	*v	*	*	*	*
=17	=17	=17	=17	=17	=17
16dLL 16G\	(>16ccLL 16f/	.	16cc\	Veil-	.
16d 16G\	16b- 16f/	.	16b-\	-chen	.
16d 16A\	16a 16f/	.	16a/	a-	.
16dJJ 16B-\	16gJJ 16f/)	.	16g/	-ber,	.
16fLL 16d 16A\	(16ffLL 16a 16f/	.	8a/	Veil-	.
16f 16d 16A\	16een/	.	.	.	.
16f 16d 16A\	16dd/	.	8a/	-chen	.
16enJJ 16A 16G\	16cc#X/JJ	.	.	.	.
=18	=18	=18	=18	=18	=18
16dLL 16A 16F\	4dd\)	.	16a\LL	ruft	.
!	!	!	!	!	!LO:DY:a
16d 16A 16F\	.	.	16bn\	.	<
16d 16A 16F\	.	.	16cc#X\JJ	.	.
16dJJ 16A 16F\	.	.	16dd\	mir	.
4d 4A 4F\	(16dd\LL	<	4dd\	zu:	[
.	16een\	.	.	.	.
.	16ff\	.	.	.	.
.	16aa\JJ)	[[	.	.	.
=19	=19	=19	=19	=19	=19
!	!	!	!	!	!LO:DY:a:rj
(2d (2B- (2G (2F;\	[2gg [2b- [2g;\	f	8.gg;\	Hof-	f
.	.	.	16dd\	-fe	.
.	.	.	4dd;\	du!	.
=20	=20	=20	=20	=20	=20
!	!	!	!	!	!LO:DY:a:rj
4d) 4B-) 4G) 4F)\	4gg] 4b-] 4g\]	.	4gg\	hof-	pp
4d [4B- [4G 4F\	4gg [4b- [4g\	pp	4dd\	-fe	.
=21	=21	=21	=21	=21	=21
!!LO:LB:g=original
2c 2B-] 2G] 2En\	2cc 2b-] 2g/]	.	[2cc\	du	.
=22	=22	=22	=22	=22	=22
2F\	(>4a 4f/	.	4cc\]	.	.
.	4f 4e-X/)	.	4cc#X\	\!	.
=23	=23	=23	=23	=23	=23
!	!LO:TX:b:i:t=mit Ausdruck.	!	!	!	!LO:DY:a
(16BB-\LL	(8.fL 8.d/	p	8.dd\	Veil-	p
16F\	.	.	.	.	.
16d\	.	.	.	.	.
16B-\JJ)	16f#X/Jk	.	16cc\	-chen,	.
(16E-\LL	8g\L	.	16cc\LL	Veil-	.
16e-\	.	.	16b-\JJ	.	.
16Fn\	8ee-\J)	.	16a/	-chen	.
16e-\JJ)	.	.	16g/	im	.
=24	=24	=24	=24	=24	=24
*	*^	*	*	*	*
(16BB-\LL	(>8dd/L	4ryy	.	8f/	tie-	.
16F\	.	.	.	.	.	.
16d\	8ccJ 8a-X/	.	.	8a-X/	-fen	.
16B-\JJ)	.	.	.	.	.	.
(16E-\LL	8b-/L	4g\	.	8g/	Thal	.
16B-\	.	.	.	.	.	.
16En\	16cc/L	.	.	8r	.	.
[16B-\JJ)	16cc#X/JJ	.	.	.	.	.
=25	=25	=25	=25	=25	=25	=25
8B-] 8F\	8dd 8f/)	4ryy	.	16f/LL	fin-	.
.	.	.	.	16g/JJ	.	.
8r	16r	.	.	16an/	-det	.
.	16b-\	.	.	16b-\	der	.
16C/	16b- 16e-/	8ryy	.	16g\LL	Son-	.
16r	16r	.	.	16ee-\	.	.
8F\	16an/LL	8e-X\	.	16dd\JJ	.	.
.	16f/JJ	.	.	16cc\	-nen	.
!!LO:LB:g=original
=26	=26	=26	=26	=26	=26	=26
16BB-\LL	(8.f/L	8.d\L	p	8b-\	Strahl.	.
16F\	.	.	.	.	.	.
16B-\	.	.	.	8r	.	.
!	!	!	!LO:HP:a	!	!	!
16AA-X\JJ	16f#X/Jk	16c\Jk	<	.	.	.
16GG\LL	8g/L	16Bn\LL	.	4r	.	.
16Bn\	.	16fn\	.	.	.	.
16c 16C\	8ee-/J)	16e-\	[	.	.	.
[16B-X\JJ	.	16g\JJ	.	.	.	.
=27	=27	=27	=27	=27	=27	=27
*^	*	*	*	*	*	*
16B-/LL]	4F\	(8.dd/L	16f\LL	.	2r	.	.
16B-/	.	.	16f\	.	.	.	.
16G/	.	.	16en\	.	.	.	.
!	!	!	!	!LO:HP:a	!	!	!
16A/JJ	.	16cc/Jk	16e-X\JJ	>	.	.	.
[4B-/	(16BB-\LL	8b-/L	16d\LL	.	.	.	.
.	16D\	.	16f#X\	.	.	.	.
.	16E-\	16a/L	16f# 16c\	.	.	.	.
.	16En\JJ)	16g/JJ	16c#X\JJ	.	.	.	.
=28	=28	=28	=28	=28	=28	=28	=28
8B-/L]	4F\	16fn/LL	4d\	]	2r	.	.
.	.	16g/	.	.	.	.	.
[8B-^/J	.	16a/	.	.	.	.	.
.	.	16b-/JJ	.	.	.	.	.
!	!	!LO:TX:a:i:t=zurückhaltend	!LO:N:vis=4	!	!LO:TX:a:i:t=zurückhaltend	!	!
16B-/LL]	8.F\L	16g/LL	8e-\	.	.	.	.
16Bn/J	.	16ee- 16g#X/	.	.	.	.	.
8c/J	.	16dd/	8a\	.	.	.	.
.	16F\Jk	16cc/JJ	.	.	.	.	.
*v	*v	*	*	*	*	*	*
*	*v	*v	*	*	*	*
=29	=29	=29	=29	=29	=29
8B-X 8BB-X\	8b- 8d/)	.	8r	.	.
*clefG2	*	*	*	*	*
!	!	!	!LO:TX:a:i:t=erstes Zeitmass.	!LO:DY:rj	!LO:DY:a
16.gLL 16.B-/	16.bb-LL 16.ee- 16.b-\	pp	16.b-/	Hof-	pp
32g-XJJk 32B-/	32cccJJk 32ee- 32cc\	.	32b-/	-fe	.
4b- 4f 4B-;/	4ddd 4ff 4dd;\	.	8b-/	du!	.
.	.	.	8r;	.	.
==	==	==	==	==	==
*-	*-	*-	*-	*-	*-
!!!system-decoration: s1{(s2,s3)}
!!!RDF**kern: N = linked
!!!RDF**kern: > = above
!!!RDF**kern: < = below
!!!filter-modern: sic -sq | shed -e "s/TX(.*):t=P:/tx$1:t=P:/LG" | shed -e "s/:rj/:RJ/L" | shed -k -e "s/([^a-gA-Gn#X-])[<>]/$1/g" | shed -e "s/LO:DY:(a|b|rj)/LO:dy:$1/L" | shed -e "s/LO:HP:(a|b|rj)/LO:hp:$1/L" | shed -e "s/-//B" | tie -s  | modori -m | humtr -p
!!!ENC: Berenika Jozajtis
!!!END: 2022-07-23
!!!ENC: Urszula Świątek
!!!END: 2022-08-17
!!!ENC-modern: Andrzej Borzym
!!!END-modern: 2022-08-27
!!!YEC: Copyright 2022 Narodowy Instytut Fryderyka Chopina (https://polishscores.org)
!!!YEM: License CC-BY-4.0 (https://creativecommons.org/licenses/by/4.0)
